icons/email-white.svg

<svg fill="none" height="16" viewBox="0 0 20 16" width="20" xmlns="http://www.w3.org/2000/svg"><path d="m2 15.1139c-.55 0-1.020833-.1733-1.4125-.5197-.391667-.3465-.5875-.763-.5875-1.2495v-10.61465c0-.4865.195833-.90298.5875-1.24944.391667-.34645.8625-.519672 1.4125-.519672h16c.55 0 1.0208.173222 1.4125.519672.3917.34646.5875.76294.5875 1.24944v10.61465c0 .4865-.1958.903-.5875 1.2495-.3917.3464-.8625.5197-1.4125.5197zm8-6.19195 8-4.42278v-1.76912l-8 4.42279-8-4.42279v1.76912z" fill="#fff"/></svg>

<svg width="20" height="16" viewBox="0 0 20 16" fill="none" xmlns="http://www.w3.org/2000/svg">
<path d="M2 15.1139C1.45 15.1139 0.979167 14.9406 0.5875 14.5942C0.195833 14.2477 0 13.8312 0 13.3447V2.73005C0 2.24355 0.195833 1.82707 0.5875 1.48061C0.979167 1.13416 1.45 0.960938 2 0.960938H18C18.55 0.960938 19.0208 1.13416 19.4125 1.48061C19.8042 1.82707 20 2.24355 20 2.73005V13.3447C20 13.8312 19.8042 14.2477 19.4125 14.5942C19.0208 14.9406 18.55 15.1139 18 15.1139H2ZM10 8.92195L18 4.49917V2.73005L10 7.15284L2 2.73005V4.49917L10 8.92195Z" fill="white"/>
</svg>
